X: 7693
T: Colin's Dirk
R: reel
M: 4/4
K: Amixolydian
|:c2 ac ceAc|feae faAB|c2 ac ceAc|faea cBBA:|
|:eaac aece|fefg acBc|eaac aece|faea cBBA:|

